!!!!SEGMENT: pl-wn--mus-iii-86-037--002_zelenski-wladyslaw--dwie-piesni-do-slow-autora-iwara-robaczek-kochal-sie-w-rozy.krn
!!!cenid: 18xx:3781
!!!COM: Żeleński, Władysław
!!!COM-rismID:
!!!CDT:
!!!CNT:
!!!GTL: Dwie pieśni do słów Autora Iwara
!!!OTL: Robaczek kochał się w róży
!!!PDT: 1883
!!!AGN:
!!!SMS-siglum: PL-Wn
!!!SMS-shelfmark: Mus.III.86.037
!!!SMS-shelfwork: 002 G
!!!SMS-variant:
!!!SMS-altvar:
!!!NIFC-rismSourceID:
!!!NIFC-islandoraID:
!!!URL-pdf-islandora:
!!!URL-scan: https://polona.pl/item/dwie-piesni-do-slow-autora-iwara-i-e-teresa-wodzicka,NzQ2OTgyMDY/0/#info:metadata @EN{Scan on Polona} @PL{Skany w portalu Polona}
!!!ONB-nifc:
!!!AIN: 2 piano
!!!key: A
**kern	**dynam	**kern	**dynam	**kern	**text	**dynam
*part3	*part3	*part2	*part2	*part1	*part1	*part1
*staff3	*	*staff2	*	*staff1	*staff1	*
*I"Fortepian.	*	*I"Fortepian.	*	*I"Śpiew.	*	*
*I'pf	*	*I'pf	*	*I'ś	*	*
*Ipiano	*	*Ipiano	*	*	*	*
*ICklav	*	*ICklav	*	*ICvox	*	*
*clefF4	*	*clefG2	*	*clefG2	*	*
*k[f#c#g#]	*	*k[f#c#g#]	*	*k[f#c#g#]	*	*
*A:	*	*A:	*	*A:	*	*
*M2/4	*	*M2/4	*	*M2/4	*	*
=1	=1	=1	=1	=1	=1	=1
*^	*	*	*	*	*	*
!	!	!	!	!	!LO:TX:a:B:t=Andante sostenuto.	!	!
*ped	*	*	*	*	*	*	*
4.G#>:\	4.EE:/ 4.BB:	.	[<2E/ [2e	mf	2r	.	.
8d\	(8D/	.	.	.	.	.	.
*Xped	*	*	*	*	*	*	*
*v	*v	*	*	*	*	*	*
=2	=2	=2	=2	=2	=2	=2
*	*	*^	*	*	*	*
8AA#X/L	.	2E/_< 2e_>	8A#X\L	.	2r	.	.
8C#/	.	.	8c#\	.	.	.	.
8BB/	.	.	8B\	.	.	.	.
8GG#/J	.	.	8G#\J	>	.	.	.
=3	=3	=3	=3	=3	=3	=3	=3
8EE/)	.	8e/]	8E\]	]	4r	.	.
8r	.	8r	8ryy	.	.	.	.
4r	.	[4e/	4ryy	pp	8r	.	.
!	!	!	!	!	!	!	!LO:DY:a
.	.	.	.	.	8e/	Ro-	p
!!LO:LB:g=original
=4||	=4||	=4||	=4||	=4||	=4||	=4||	=4||
!	!	!	!	!	!LO:TX:a:i:t=semplice	!	!
2r	.	(4.e/_	8r	.	8e/	-ba-	.
.	.	.	(8d\L	.	8e/	-czek	.
.	.	.	8c#\	.	8e/	ko-	.
.	.	16e/LL]	8cn\J)	.	16e/	-chał	.
.	.	16a/JJ)	.	.	16a/	się	.
=5	=5	=5	=5	=5	=5	=5	=5
!	!	!	!	!	!	!	!LO:HP:a
8r	.	(8.g#/L	8r	.	8.g#/L	w ró-	>
(8BB/L	.	.	8A\L 8d#X	>	.	.	.
.	.	16f#/Jk	.	.	16f#/Jk	.	.
8EE/J)	.	8e/L)	8G#\J	.	8e/	-ży	]
8r	.	[8e/J	8r	]	[8e/	Ró-	.
=6	=6	=6	=6	=6	=6	=6	=6
8r	.	4.e/_	8r	.	8e/]	.	.
(8B\L	.	.	(>8d\	.	16e/	-ża	.
.	.	.	.	.	16e/	się	.
8A\	.	.	4c#\)	.	8e/	w or-	.
8Gn\J	.	(<16e/LL]	.	.	16e/	-le	.
.	.	16b/JJ)	.	.	16b/	ko-	.
=7	=7	=7	=7	=7	=7	=7	=7
4F#\)	.	(8b/L	4c#\ 4e	.	8b/	-cha-	.
.	.	8a#X/J)	.	.	8a#X/	-łą	.
8r	.	[4f#/	8r	.	8f#/	o-	.
!	!	!	!	!	!	!	!LO:HP:a
(8cn\	.	.	[8e\	.	16f#/	-rzeł	<
.	.	.	.	.	16g#/	roz-	[[
!!LO:LB:g=original
=8	=8	=8	=8	=8	=8	=8	=8
([2B\)	<	2f#/]	(8e\L]	.	4.an/	-ko-	<
.	.	.	8d#X\	.	.	.	.
.	.	.	8c#\	.	.	.	.
.	.	.	8d#\J	.	16f#/	-chał	.
.	.	.	.	.	16cc#\	się	.
=9	=9	=9	=9	=9	=9	=9	=9
8B\L]	[	[4.f#/	2e\)	.	8cc#\	w gwia-	[
8A#X\	.	.	.	.	[4.f#/	-zdzie,_	.
8G#\	.	.	.	.	.	.	.
8F#\J)	.	(<16f#/LL]	.	.	.	.	.
.	.	16cc#/JJ)	.	.	.	.	.
=10	=10	=10	=10	=10	=10	=10	=10
*^	*	*	*	*	*	*	*
2B/	(>4.B\	.	(4a/ 4cc#	(2d#X\	>	8f#/]	.	.
.	.	.	.	.	.	8r	.	.
.	.	.	[4f#/)	.	.	16r	.	.
!	!	!	!	!	!	!	!	!LO:DY:a
.	.	.	.	.	.	16f#/	Co	p
.	(>8An\)	.	.	.	]	16g#/	nań	.
.	.	.	.	.	.	16a/	z o-	.
=11	=11	=11	=11	=11	=11	=11	=11	=11
!	!	!	!	!	!	!	!	!LO:DY:a
2B/	2G#\)	.	8f#/L]	2dn\)	.	4.b/	-bło-	<
.	.	.	(<8ddn/	.	<	.	.	.
.	.	.	8e#X/	.	.	.	.	.
.	.	.	8f#/J)	.	[	16a#X/	-ków	.
.	.	.	.	.	.	16b/	spoj-	[[
*v	*v	*	*	*	*	*	*	*
!!LO:PB:g=original
=12	=12	=12	=12	=12	=12	=12	=12
!	!	!	!	!	!	!	!LO:DY:a
4.C#\ 4.G#	.	(8f#/	4.B\	>	4dd\	-rza-	>
.	.	4e#X/)	.	.	.	.	.
.	.	.	.	.	8g#/	-ła.	]
(<16C#/LL	.	(16c#/LL	8ryy	] pp	8r	.	.
16D#X/JJ	.	16d#X/JJ	.	.	.	.	.
*	*	*v	*v	*	*	*	*
=13	=13	=13	=13	=13	=13	=13
2En\)	.	(2en/)	.	4r	.	.
.	.	.	.	8r	.	.
.	.	.	.	8e/	Ro-	.
=14	=14	=14	=14	=14	=14	=14
*	*	*^	*	*	*	*
!	!	!LO:TX:b:i:t=dolce.	!	!	!LO:TX:a:i:t=con affetto.	!	!
(4AA/	.	8e/L)	16e\LL	.	8e/	-bacz-	.
.	.	.	16A\ 16cn	.	.	.	.
.	.	(8e-X/	16e-\	.	8gn/	-ka	.
.	.	.	16A\JJ 16c	.	.	.	.
4D/)	.	8d/	16d\LL	.	8f#/	no-	.
.	.	.	16A\ 16c	.	.	.	.
.	.	8f#/J	16f#\	.	16a/	-gą	.
.	.	.	16A\JJ 16c	.	16ccn\	zdep-	.
=15	=15	=15	=15	=15	=15	=15	=15
(2GGn/	.	8gn/L	16g\LL	.	16b/LL	-ta-	.
.	.	.	16Gn\ 16B	.	16a/JJ	.	.
.	.	8fn/	16f\	.	8gn/	-no,	.
.	.	.	16G\JJ 16B	.	.	.	.
.	.	8e/	16e\LL	.	8g/	Ró-	.
.	.	.	16G\ 16B	.	.	.	.
.	.	8d#X/J	16d#\	.	16g/	-ża	.
.	.	.	16G\JJ) 16B	.	16g/	u	.
!!LO:LB:g=original
=16	=16	=16	=16	=16	=16	=16	=16
(8Cn/L)	.	4.e/	16e\KL	.	4.ee\	wię-	.
.	.	.	8Gn\ 8cn	.	.	.	.
8BB/	.	.	.	.	.	.	.
.	.	.	8G#X\ 8c	.	.	.	.
8AA/	.	.	.	.	.	.	.
.	.	.	8A\ 8c	<	.	.	.
!	!	!	!	!	!	!	!LO:DY:a
8EE/J)	.	[8gn/	.	.	16dd\	-dła	<
!	!	!	!LO:TX:b:i:t=sempre.	!	!LO:TX:a:i:t=sempre.	!	!
.	.	.	16A\Jk 16c	.	16ccn\	i	.
=17	=17	=17	=17	=17	=17	=17	=17
(4AAA/	.	8g/L]	16gn\LL	.	8b/	zbla-	.
.	.	.	16A\ 16cn	.	.	.	.
.	.	(8e/	16e\	.	8a/	-dła	.
.	.	.	16A\JJ 16c	.	.	.	.
(4AA/)	.	8a/	16a\LL	.	8a/	Or-	.
.	.	.	16A\ 16c	.	.	.	.
.	.	8gn/J	16g\	.	16b\	-ła	.
.	.	.	16A\JJ 16c	.	16ccn\	do	.
=18	=18	=18	=18	=18	=18	=18	=18
(4AA/)	.	4f#/)	16f#\KL	.	4.dd\	klat-	.
.	.	.	8A\ 8cn	.	.	.	.
.	.	.	16A\Jk 16c	.	.	.	.
4BB/	.	(8fn/L	16f\KL	.	.	.	.
.	.	.	8A\ 8d	.	.	.	.
.	.	16.e/L	.	.	16cc#X\	-ki	.
.	.	.	16A\Jk 16d	.	16dd\	schwy-	.
.	.	32f/JJk	.	.	.	.	.
=19	=19	=19	=19	=19	=19	=19	=19
!	!	!	!	!	!	!	!LO:DY:a
8Cn/)	.	4a/	16a\KL	.	4ffn\	-ta-	f
.	.	.	8A\ 8cn	.	.	.	.
(<4CCn/	.	.	.	.	.	.	.
.	.	.	16A\Jk 16c	.	.	.	.
.	.	(4fn/)	16f\KL	.	[4a/	-no_	.
.	.	.	8Fn\ 8A	.	.	.	.
8CC#X/	.	.	.	.	.	.	.
.	.	.	16F\Jk 16A	.	.	.	.
!!LO:LB:g=original
=20	=20	=20	=20	=20	=20	=20	=20
!	!	!	!	!LO:DY:a	!	!	!
4DD/	.	8fn/L)	16f\KL	>	8a/]	.	.
.	.	.	8Fn\ 8A	.	.	.	.
.	.	(8d/J	.	.	8r	.	.
.	.	.	16F\Jk 16A	.	.	.	.
!	!	!LO:TX:t=P:problem=mixed beam	!	!	!	!	!
4FFn\	.	8A/L	16A\LL	.	4r	.	.
.	.	.	16D</	.	.	.	.
.	.	8d/J)	16d\	.	.	.	.
.	.	.	16D</JJ 16A<	.	.	.	.
*	*	*v	*v	*	*	*	*
=21	=21	=21	=21	=21	=21	=21
*^	*	*	*	*	*	*
[4D/)) [4G#	[4EE\	.	(8d/	]	2r	.	.
.	.	.	4B/)	.	.	.	.
8D/] 8G#]	8EE\]	.	.	.	.	.	.
8r	8ryy	.	(8fn/	.	.	.	.
*v	*v	*	*	*	*	*	*
=22	=22	=22	=22	=22	=22	=22
*	*	*^	*	*	*	*
2r	.	[2e/)	2e/	>	4r	.	.
.	.	.	.	.	8r	.	.
!	!	!	!	!	!	!	!LO:DY:a
.	.	.	.	]	[8e/	Gwiaz-	p
=23	=23	=23	=23	=23	=23	=23	=23
8r	.	2e/]	8r	.	4e/]	.	.
8B\L	.	.	8d\L	<	.	.	.
!	!	!	!	!	!	!	!LO:DY:a
8A\	.	.	(>8c#\	.	8.e/	-da	<
8Gn\J	.	.	8B\J) 8c#	[	.	.	.
.	.	.	.	.	16cc#\	za-	[[
!!LO:LB:g=original
=24	=24	=24	=24	=24	=24	=24	=24
!	!	!	!	!	!	!	!LO:DY:a
(4F#\	.	(4c#/ 4e	[4A\	>	8cc#\	-błys-	>
.	.	.	.	.	4f#/	-łą,	]
8BB/)	.	8B/L) 8d#X	8A\]	]	.	.	.
!	!	!LO:TX:b:i:t=dolce.	!	!	!	!	!
8r	.	(8a/J	8ryy	.	8r	.	.
*	*	*v	*v	*	*	*	*
=25	=25	=25	=25	=25	=25	=25
2r	.	4g#/	.	4r	.	.
.	.	4f#/)	.	8r	.	.
.	.	.	.	8dd\	za-	.
=26	=26	=26	=26	=26	=26	=26
!	!	!	!	!LO:TX:a:i:t=espress.	!	!
4BBB:/ 4BB:	.	4F#:/ 4A: 4d: 4f#:	pp <	8dd\	-błys-	.
.	.	.	.	4f#/	-la	.
4EE:/ 4BB: 4E:	.	4B:/ 4f#: 4b:	.	.	.	.
.	.	.	[	8cc#\	i	.
=27	=27	=27	=27	=27	=27	=27
*ped	*	*	*	*	*	*
4.AA:/ 4.E:	.	[2A:/ [2c#: [2a:	.	8b/	spa-	>
.	.	.	.	[4.a/	-dła._	]]
(<8F#\	.	.	<	.	.	.
=28	=28	=28	=28	=28	=28	=28
*^	*	*	*	*	*	*
8E/L	4ryy	.	2A/_ 2c#_ 2a_	.	4a/]	.	.
8C#/	.	.	.	[	.	.	.
(8AA/	4AA\	.	.	>	4r	.	.
[<8EE/J	.	.	.	[	.	.	.
=29	=29	=29	=29	=29	=29	=29	=29
2AA;/)	2AAA/) 2EE]	.	2A;/] 2c#] 2a]	]	2r;	.	.
*Xped	*	*	*	*	*	*	*
*v	*v	*	*	*	*	*	*
==	==	==	==	==	==	==
*-	*-	*-	*-	*-	*-	*-
!!!RDF**kern: > = above
!!!RDF**kern: < = below
!!!system-decoration: s1[(s2,s3)]
!!!ENC: Andrzej Gręziak
!!!END: 2022-03-23
!!!ENC: Urszula Świątek
!!!EN: 2022-03-27
